vendor/shopware/storefront/Resources/app/storefront/dist/assets/icon/default/x-block.svg

<svg xmlns="http://www.w3.org/2000/svg" width="24" height="24" viewBox="0 0 24 24">
  <path fill="#758CA3" fill-rule="evenodd" d="M10.5857864,12 L6.29289322,7.70710678 C5.90236893,7.31658249 5.90236893,6.68341751 6.29289322,6.29289322 C6.68341751,5.90236893 7.31658249,5.90236893 7.70710678,6.29289322 L12,10.5857864 L16.2928932,6.29289322 C16.6834175,5.90236893 17.3165825,5.90236893 17.7071068,6.29289322 C18.0976311,6.68341751 18.0976311,7.31658249 17.7071068,7.70710678 L13.4142136,12 L17.7071068,16.2928932 C18.0976311,16.6834175 18.0976311,17.3165825 17.7071068,17.7071068 C17.3165825,18.0976311 16.6834175,18.0976311 16.2928932,17.7071068 L12,13.4142136 L7.70710678,17.7071068 C7.31658249,18.0976311 6.68341751,18.0976311 6.29289322,17.7071068 C5.90236893,17.3165825 5.90236893,16.6834175 6.29289322,16.2928932 L10.5857864,12 Z M3,8.95550994e-16 L21,8.95550994e-16 C22.6568542,1.02790497e-15 24,1.34314575 24,3 L24,21 C24,22.6568542 22.6568542,24 21,24 L3,24 C1.34314575,24 2.02906125e-16,22.6568542 0,21 L0,3 C-2.02906125e-16,1.34314575 1.34314575,2.08071949e-15 3,8.95550994e-16 Z M3,2 C2.44771525,2 2,2.44771525 2,3 L2,21 C2,21.5522847 2.44771525,22 3,22 L21,22 C21.5522847,22 22,21.5522847 22,21 L22,3 C22,2.44771525 21.5522847,2 21,2 L3,2 Z"/>
</svg>

<svg xmlns="http://www.w3.org/2000/svg" width="24" height="24" viewBox="0 0 24 24"><path fill="#758CA3" fill-rule="evenodd" d="m10.5858 12-4.293-4.2929c-.3904-.3905-.3904-1.0237 0-1.4142.3906-.3905 1.0238-.3905 1.4143 0L12 10.5858l4.2929-4.293c.3905-.3904 1.0237-.3904 1.4142 0 .3905.3906.3905 1.0238 0 1.4143L13.4142 12l4.293 4.2929c.3904.3905.3904 1.0237 0 1.4142-.3906.3905-1.0238.3905-1.4143 0L12 13.4142l-4.2929 4.293c-.3905.3904-1.0237.3904-1.4142 0-.3905-.3906-.3905-1.0238 0-1.4143L10.5858 12zM3 0h18c1.6569 0 3 1.3431 3 3v18c0 1.6569-1.3431 3-3 3H3c-1.6569 0-3-1.3431-3-3V3c0-1.6569 1.3431-3 3-3zm0 2c-.5523 0-1 .4477-1 1v18c0 .5523.4477 1 1 1h18c.5523 0 1-.4477 1-1V3c0-.5523-.4477-1-1-1H3z"/></svg>
